!!!!SEGMENT: pl-wtm--r-1587_stefani-jozef--opatrznosci-wiernych.krn
!!!cenid: 18xx:2342
!!!COM: Stefani, Józef
!!!COM-rismID: pe30024097
!!!CDT: 1800/04/16-1876/03/19
!!!CNT: Polish
!!!OTL: Opatrzności wiernych
!!!PDT:
!!!AGN:
!!!SMS-siglum: PL-Wtm
!!!SMS-shelfmark: R 1587
!!!SMS-shelfwork: W
!!!SMS-variant:
!!!SMS-altvar:
!!!NIFC-rismSourceID: 1001115604
!!!NIFC-rismChildID: 1001115604
!!!NIFC-islandoraID: pl-wtm:27323
!!!URL-pdf-islandora: https://repozytorium.nifc.pl/islandora/object/pl-wtm%3A27323/datastream/PDF/view
!!!URL-scan: https://polish.musicsources.pl/pl/lokalizacje/galeria/rekopisy/6381 @EN{Scan on Polish Music Sources Website} @PL{Skany w portalu Dziedzictwo Muzyki Polskiej w otwartym dostępie}
!!!ONB-nifc:
!!!OMD: Adagio.
!!!AIN: 4 empty
!!!key:
**kern	**dynam	**kern	**kern	**kern	**text	**dynam
*part4	*part4	*part3	*part2	*part1	*part1	*part1
*staff4	*	*staff3	*staff2	*staff1	*staff1	*
*Iempty	*	*Iempty	*Iempty	*Iempty	*	*
*I"	*	*I"	*I"	*I"	*	*
*clefF4	*	*clefF4	*clefC4	*clefC4	*	*
*k[f#]	*	*k[f#]	*k[f#]	*k[f#]	*	*
*G:	*	*G:	*G:	*G:	*	*
*M2/2	*	*M2/2	*M2/2	*M2/2	*	*
*met(c|)	*	*met(c|)	*met(c|)	*met(c|)	*	*
=1	=1	=1	=1	=1	=1	=1
*all\right	*	*all\right	*	*all\right	*	*all\right
*	*	*2\right	*	*2\right	*	*
2GG/	.	2D\	2G/	2B\	O-	p
2GG/	.	2D\	2G/	2B\	-pa-	.
=2	=2	=2	=2	=2	=2	=2
*2\right	*	*	*	*	*	*
2D\	.	2D\	2F#/	2A\	-trzno-	.
2E\	.	2E\	2E/	2G/	-ści	.
=3	=3	=3	=3	=3	=3	=3
4.D\	.	4.D\	4.F#/	4.A\	wier-	.
8D\	.	8D\	8F#/	8A\	-nych	.
4D\	.	4D\	4F#/	4A\	świę-	.
4D\	.	4D\	4F#/	4d\	-ta	.
=4	=4	=4	=4	=4	=4	=4
2GG/	.	2D\	2G/	2B\	Mar-	.
4GG/	.	4D\	4G/	4B\	-jo	.
4GG/	.	4G\	4G/	4B\	bez	.
!!LO:LB:g=original
=5	=5	=5	=5	=5	=5	=5
*	*	*	*2\right	*	*	*
2FF#/	.	2F#\	2A#X\	2c#X\	grze-	.
!	!	!	!	!	!	!
4.F#\	.	4.F#\	4.G#X\	4.B\	-chów	<
8F#\	.	8F#\	8A#\	8c#\	bez	.
=6	=6	=6	=6	=6	=6	=6
!LO:N:vis=1	!	!	!	!	!	!
2BB/	.	2F#\	2B\	2d\	grze-	<
4GG/	.	4G\	4B\	4e\	-chów	.
4G\	.	4G\	4B\	8d\L	po-	.
.	.	.	.	8e\J	.	[[
=7	=7	=7	=7	=7	=7	=7
!	!	!	!	!	!	!LO:DY:rj
1F#	.	1F#	1A#X	1f#	-czę-	f
=8	=8	=8	=8	=8	=8	=8
!	!	!LO:N:vis=2.	!	!	!	!
2F#\	.	2F#\	2A#X\	2c#X\	-ta,	.
4r	.	4r	4r	4r	.	.
4F#\	.	4F#\	4A#\	4f#\	Pro-	.
=9	=9	=9	=9	=9	=9	=9
4.E\	.	4.E\	4.B\	4.g\	-si-	.
8E\	.	8E\	8B\	8g\	-my	.
4AA/	.	4A\	4c#X\	4e\	Cie-	.
8AA/	.	8A\	8B\	8d\	-bie	.
8AA/	.	8A\	8c#\	8e\	ze	.
!!LO:LB:g=original
=10	=10	=10	=10	=10	=10	=10
2D\	.	2A\	2d\	2f#\	łza-	.
4D\	.	4A\	4d\	4f#\	-mi	.
4C/	.	4A\	4d\	4f#\	módl	.
=11	=11	=11	=11	=11	=11	=11
2BB/	.	2G\	2d\	2g\	się	.
2C/	.	2G\	2c\	2e\	do	.
=12	=12	=12	=12	=12	=12	=12
!	!	!	!	!	!	!
2D\	.	2G\	2B\	2d\	Bo-	>
4.D#X\	.	4.F#\	4.A\	4.c\	-ga	.
8D#\	.	8F#\	8A\	8c\	za	.
=13	=13	=13	=13	=13	=13	=13
2E\	.	2E\	2G/	2B\	na-	]
4E\	.	4E\	4G/	4B\	-mi	.
4C/	.	4G\	4c\	4e\	módl	.
=14	=14	=14	=14	=14	=14	=14
2D\	.	2G\	2B\	2d\	się	.
2D\	.	2D\	2G/	2B\	do	.
!!LO:PB:g=original
=15	=15	=15	=15	=15	=15	=15
2D\	.	2D\	2G/	2A\	Bo-	.
4D\	.	4D\	4F#/	4A\	-ga	.
4D\	.	4D\	4F#/	4d\	za	.
=16	=16	=16	=16	=16	=16	=16
2GG/	.	2G\	2G/	2G/	na-	.
4GG/	.	4G\	4G/	4G/	-mi	.
!	!	!	!	!	!	!LO:DY:rj
4BB/	.	4D\	4G/	4G/	Pro-	p
=17	=17	=17	=17	=17	=17	=17
!	!	!	!	!	!	!
4.BB/	.	4.D\	4.G/	4.G/	-si-	<
8BB/	.	8D\	8G/	8G/	-my	.
4C#X/	.	4E\	4G/	4A/	Cie-	.
8C#/	.	8E\	8G/	8G/	-bie	.
8C#/	.	8E\	8G/	8A/	ze	[[
=18	=18	=18	=18	=18	=18	=18
!	!	!	!	!	!	!
2D\	.	2D\	2G/	2B\	łza-	>
4D\	.	4D\	4G/	4B\	-mi	.
4D#X\	.	4D#X\	4F#/	4A\	módl	]
!!LO:LB:g=original
=19	=19	=19	=19	=19	=19	=19
!	!	!	!	!	!	!
*	*	*	*	*	*	*
2E\	<	2E\	2G/	2G/	się	<
2C/	[[	2G\	2c\	2e\	do	[[
=20	=20	=20	=20	=20	=20	=20
*	*above	*	*	*	*	*
!	!LO:DY:rj	!	!	!	!	!LO:DY:rj
2D\	f	2G\	2B\	2d\	Bo-	f
4D\	.	4G\	4G/	4B\	-ga	.
4D\	.	4G\	4B\	(4g\	za	.
=21	=21	=21	=21	=21	=21	=21
(2..D\	.	(2..A\	(2..c\	4g\	na-	.
.	.	.	.	8f#\L	.	.
.	.	.	.	8e\J	.	.
.	.	.	.	4.f#\	.	.
8E\)	.	8G\)	8B\)	8g\)	.	.
=22	=22	=22	=22	=22	=22	=22
2E\	.	2G\	2B\	2g\	-mi.	.
!	!LO:DY:rj	!	!	!	!	!LO:DY:rj
2C/	p	2G\	2c\	2e\	Za	p
!!LO:LB:g=original
=23	=23	=23	=23	=23	=23	=23
(4BB/	.	(2G\	(4B\	(4d\	na-	.
4E\	.	.	4G/	4B\	.	.
4AA/	.	4E\	4A/	4c\	.	.
4D/)	.	4D\)	4F#/)	4A\)	.	.
=24	=24	=24	=24	=24	=24	=24
2.G\	.	2.G\	2.G/	2.G/	-mi.	.
4r	.	4r	4r	4r	.	.
==	==	==	==	==	==	==
*-	*-	*-	*-	*-	*-	*-
!!!system-decoration: {s1,s2,s3,s4}
!!!RDF**dynam: < = cresc:
!!!EED: Andrzej Borzym
!!!EEV: 2021-06-14
!!!ENC: Andrzej Kubiczek
!!!END: 2021-06-03
!!!YEC: Copyright 2022 Narodowy Instytut Fryderyka Chopina (https://polishscores.org)
!!!YEM: License CC-BY-4.0 (https://creativecommons.org/licenses/by/4.0)
